Origami/32x32/apps/pragha.svg

<svg width="32" height="32" version="1" xmlns="http://www.w3.org/2000/svg">
 <rect transform="matrix(0,-1,-1,0,0,0)" x="-31" y="-30" width="28" height="28" rx="1.4" ry="1.4" style="opacity:.2"/>
 <rect transform="matrix(0,-1,-1,0,0,0)" x="-30" y="-30" width="28" height="28" rx="1.4" ry="1.4" style="fill:#3c6eb4"/>
 <path d="m19.507812 8.000124c-0.100023-0.00609-0.260178 0.057943-0.552734 0.1855469-0.347271 0.1514756-1.136108 0.2753906-1.753906 0.2753906-2.186353 0.044646-3.93601 0.7937085-5.353516 2.2050785-1.9240286 1.928684-2.5299823 4.354464-1.652344 6.607422 0.202591 0.52005 0.326048 1.049298 0.273438 1.175781-0.05259 0.126477-0.422565 0.476837-0.8203125 0.779297-0.8642072 0.657078-1.4618049 1.716632-1.6113281 2.855468-0.089815 0.684071-0.027838 1.010418 0.3535156 1.824219 0.8190025 1.747578 2.676585 2.496148 4.65625 1.876953 1.146276-0.358516 2.292731-1.632446 3.210937-3.564453 0.793027-1.668725 0.826618-1.709236 1.677735-2.009765 1.43489-0.506683 2.339574-1.065769 3.238281-2.003907 1.593278-1.663256 2.184306-3.817978 1.613281-5.876953-0.256589-0.925123-0.47278-1.244131-1.634765-2.4218749-0.736025-0.7460246-1.388445-1.5014051-1.451172-1.6777343-0.05288-0.1485542-0.093334-0.2244042-0.19336-0.2304688zm-3.867187 2c0.681144 0.0028 1.207836 0.208356 1.351563 0.617187 0.04712 0.134067-0.151514 0.76668-0.44336 1.404297-0.750512 1.639777-0.989845 2.540902-1.443359 5.433594-0.562458 3.587533-1.176917 5.136871-2.408203 6.06836-0.776215 0.587188-1.729123 0.636937-2.238282 0.11914-0.440501-0.447975-0.568186-1.009382-0.363281-1.597656 0.16231-0.465997 0.318924-0.540626 1.501953-0.714844 0.823061-0.121185 1.402344-0.691261 1.402344-1.4375 0-0.46958-0.188837-0.739851-0.828125-1.416016-0.98906-1.046138-1.421227-2.050741-1.425781-3.318359-0.0072-1.982662 0.963302-3.668566 2.621094-4.554687 0.757936-0.405123 1.592292-0.6063113 2.273437-0.603516zm2.533203 1.001953c0.204095-0.03048 0.463436 0.208441 0.830078 0.707031 1.448618 1.969844 1.300256 4.951352-0.332031 6.664063-0.695799 0.730063-0.859357 0.774173-1.341797 0.380859-0.279053-0.2275-0.332376-0.433578-0.330078-1.265625 0.0033-1.274698 0.382391-4.395963 0.677734-5.582031 0.143119-0.574731 0.291997-0.873794 0.496094-0.904297z" style="opacity:.2"/>
 <path d="m19.507812 7c-0.100023-0.00609-0.260178 0.0579431-0.552734 0.1855469-0.347271 0.1514756-1.136108 0.2753906-1.753906 0.2753906-2.186353 0.044646-3.93601 0.7937085-5.353516 2.2050781-1.9240286 1.9286844-2.5299823 4.3544644-1.652344 6.6074224 0.202591 0.52005 0.326048 1.049298 0.273438 1.175781-0.05259 0.126477-0.422565 0.476837-0.8203125 0.779297-0.8642072 0.657078-1.4618049 1.716632-1.6113281 2.855468-0.089815 0.684071-0.0278385 1.010418 0.3535156 1.824219 0.8190025 1.747578 2.676585 2.496148 4.65625 1.876953 1.146276-0.358516 2.292731-1.632446 3.210937-3.564453 0.793027-1.668725 0.826618-1.709236 1.677735-2.009765 1.43489-0.506683 2.339574-1.065769 3.238281-2.003907 1.593278-1.663256 2.184306-3.817978 1.613281-5.876953-0.256589-0.925123-0.47278-1.244131-1.634765-2.4218749-0.736025-0.7460246-1.388445-1.5014051-1.451172-1.6777343-0.05288-0.1485542-0.093334-0.2244042-0.19336-0.2304688zm-3.867187 2c0.681144 0.0028 1.207836 0.2083559 1.351563 0.6171875 0.047119 0.1340669-0.151514 0.7666795-0.44336 1.4042965-0.750512 1.639777-0.989845 2.540902-1.443359 5.433594-0.562458 3.587533-1.176917 5.136871-2.408203 6.06836-0.776215 0.587188-1.729123 0.636937-2.238282 0.11914-0.440501-0.447975-0.568186-1.009382-0.363281-1.597656 0.16231-0.465997 0.318924-0.540626 1.501953-0.714844 0.823061-0.121185 1.402344-0.691261 1.402344-1.4375 0-0.46958-0.188837-0.739851-0.828125-1.416016-0.98906-1.046138-1.421227-2.050741-1.425781-3.318359-0.0072-1.982662 0.963302-3.668566 2.621094-4.5546874 0.757936-0.4051224 1.592292-0.6063109 2.273437-0.6035156zm2.533203 1.001953c0.204095-0.0304798 0.463436 0.208441 0.830078 0.707031 1.448618 1.969844 1.300256 4.951352-0.332031 6.664063-0.695799 0.730063-0.859357 0.774173-1.341797 0.380859-0.279053-0.2275-0.332376-0.433578-0.330078-1.265625 0.0033-1.274698 0.382391-4.395963 0.677734-5.582031 0.143119-0.574731 0.291997-0.873794 0.496094-0.904297z" style="fill:#ffffff"/>
 <path d="M 3.4003906 2 C 2.6247906 2 2 2.6247906 2 3.4003906 L 2 4.4003906 C 2 3.6247906 2.6247906 3 3.4003906 3 L 28.599609 3 C 29.375209 3 30 3.6247906 30 4.4003906 L 30 3.4003906 C 30 2.6247906 29.375209 2 28.599609 2 L 3.4003906 2 z" style="fill:#ffffff;opacity:.1"/>
</svg>

<svg xmlns="http://www.w3.org/2000/svg" width="32" height="32" version="1">
 <rect style="opacity:0.2" width="28" height="28" x="-31" y="-30" rx="1.4" ry="1.4" transform="matrix(0,-1,-1,0,0,0)"/>
 <rect style="fill:#3c6eb4" width="28" height="28" x="-30" y="-30" rx="1.4" ry="1.4" transform="matrix(0,-1,-1,0,0,0)"/>
 <path style="opacity:0.2" d="m 19.507812,8.000124 c -0.100023,-0.00609 -0.260178,0.057943 -0.552734,0.1855469 -0.347271,0.1514756 -1.136108,0.2753906 -1.753906,0.2753906 -2.186353,0.044646 -3.93601,0.7937085 -5.353516,2.2050785 -1.9240286,1.928684 -2.5299823,4.354464 -1.652344,6.607422 0.202591,0.52005 0.326048,1.049298 0.273438,1.175781 -0.05259,0.126477 -0.422565,0.476837 -0.8203125,0.779297 -0.8642072,0.657078 -1.4618049,1.716632 -1.6113281,2.855468 -0.089815,0.684071 -0.027838,1.010418 0.3535156,1.824219 0.8190025,1.747578 2.676585,2.496148 4.65625,1.876953 1.146276,-0.358516 2.292731,-1.632446 3.210937,-3.564453 0.793027,-1.668725 0.826618,-1.709236 1.677735,-2.009765 1.43489,-0.506683 2.339574,-1.065769 3.238281,-2.003907 1.593278,-1.663256 2.184306,-3.817978 1.613281,-5.876953 C 22.53052,11.405079 22.314329,11.086071 21.152344,9.9083271 20.416319,9.1623025 19.763899,8.406922 19.701172,8.2305928 19.648292,8.0820386 19.607838,8.0061886 19.507812,8.000124 Z m -3.867187,2 c 0.681144,0.0028 1.207836,0.208356 1.351563,0.617187 0.04712,0.134067 -0.151514,0.76668 -0.44336,1.404297 -0.750512,1.639777 -0.989845,2.540902 -1.443359,5.433594 -0.562458,3.587533 -1.176917,5.136871 -2.408203,6.06836 -0.776215,0.587188 -1.729123,0.636937 -2.238282,0.11914 -0.440501,-0.447975 -0.568186,-1.009382 -0.363281,-1.597656 0.16231,-0.465997 0.318924,-0.540626 1.501953,-0.714844 C 12.420717,21.209017 13,20.638941 13,19.892702 c 0,-0.46958 -0.188837,-0.739851 -0.828125,-1.416016 -0.98906,-1.046138 -1.421227,-2.050741 -1.425781,-3.318359 -0.0072,-1.982662 0.963302,-3.668566 2.621094,-4.554687 0.757936,-0.405123 1.592292,-0.6063113 2.273437,-0.603516 z m 2.533203,1.001953 c 0.204095,-0.03048 0.463436,0.208441 0.830078,0.707031 1.448618,1.969844 1.300256,4.951352 -0.332031,6.664063 -0.695799,0.730063 -0.859357,0.774173 -1.341797,0.380859 C 17.051025,18.52653 16.997702,18.320452 17,17.488405 c 0.0033,-1.274698 0.382391,-4.395963 0.677734,-5.582031 0.143119,-0.574731 0.291997,-0.873794 0.496094,-0.904297 z"/>
 <path style="fill:#ffffff" d="M 19.507812 7 C 19.407789 6.99391 19.247634 7.0579431 18.955078 7.1855469 C 18.607807 7.3370225 17.81897 7.4609375 17.201172 7.4609375 C 15.014819 7.5055835 13.265162 8.254646 11.847656 9.6660156 C 9.9236274 11.5947 9.3176737 14.02048 10.195312 16.273438 C 10.397903 16.793488 10.52136 17.322736 10.46875 17.449219 C 10.41616 17.575696 10.046185 17.926056 9.6484375 18.228516 C 8.7842303 18.885594 8.1866326 19.945148 8.0371094 21.083984 C 7.9472944 21.768055 8.0092709 22.094402 8.390625 22.908203 C 9.2096275 24.655781 11.06721 25.404351 13.046875 24.785156 C 14.193151 24.42664 15.339606 23.15271 16.257812 21.220703 C 17.050839 19.551978 17.08443 19.511467 17.935547 19.210938 C 19.370437 18.704255 20.275121 18.145169 21.173828 17.207031 C 22.767106 15.543775 23.358134 13.389053 22.787109 11.330078 C 22.53052 10.404955 22.314329 10.085947 21.152344 8.9082031 C 20.416319 8.1621785 19.763899 7.406798 19.701172 7.2304688 C 19.648292 7.0819146 19.607838 7.0060646 19.507812 7 z M 15.640625 9 C 16.321769 9.0028 16.848461 9.2083559 16.992188 9.6171875 C 17.039307 9.7512544 16.840674 10.383867 16.548828 11.021484 C 15.798316 12.661261 15.558983 13.562386 15.105469 16.455078 C 14.543011 20.042611 13.928552 21.591949 12.697266 22.523438 C 11.921051 23.110626 10.968143 23.160375 10.458984 22.642578 C 10.018483 22.194603 9.890798 21.633196 10.095703 21.044922 C 10.258013 20.578925 10.414627 20.504296 11.597656 20.330078 C 12.420717 20.208893 13 19.638817 13 18.892578 C 13 18.422998 12.811163 18.152727 12.171875 17.476562 C 11.182815 16.430424 10.750648 15.425821 10.746094 14.158203 C 10.738894 12.175541 11.709396 10.489637 13.367188 9.6035156 C 14.125124 9.1983932 14.95948 8.9972047 15.640625 9 z M 18.173828 10.001953 C 18.377923 9.9714732 18.637264 10.210394 19.003906 10.708984 C 20.452524 12.678828 20.304162 15.660336 18.671875 17.373047 C 17.976076 18.10311 17.812518 18.14722 17.330078 17.753906 C 17.051025 17.526406 16.997702 17.320328 17 16.488281 C 17.0033 15.213583 17.382391 12.092318 17.677734 10.90625 C 17.820853 10.331519 17.969731 10.032456 18.173828 10.001953 z"/>
 <path style="fill:#ffffff;opacity:0.1" d="M 3.4003906 2 C 2.6247906 2 2 2.6247906 2 3.4003906 L 2 4.4003906 C 2 3.6247906 2.6247906 3 3.4003906 3 L 28.599609 3 C 29.375209 3 30 3.6247906 30 4.4003906 L 30 3.4003906 C 30 2.6247906 29.375209 2 28.599609 2 L 3.4003906 2 z"/>
</svg>
